X: 1
T:The Duck  "CCPB Sep-1995"
M:6/8
L:1/8
Q:80
C:PM Donald MacLeod
S:Jig
K:HP
|: {g}A2d{G}def|
{gef}e2d{G}def|
{gef}e2d{G}def|  !
{gef}e2d{g}ef{e}f|
{g}A2d{G}def|
{gef}e2d{G}def|  !
{gef}e2d{g}fed|
{gBd}B2A{g}Bcd:| |:
{g}A2a{fg}f2e|  !
{g}fd{G}d{g}d2e|
{g}fd{G}d{g}d2e|
{g}fd{G}d{g}fa{g}a|  !
{AGAG}A2a{fg}f2e|
{g}fd{G}d{g}d2e|
{gfg}f2e{g}fed|  !
{gBd}B2A{g}Bcd:|
